src/views/toy/imgs/codium.svg

<?xml version="1.0" encoding="UTF-8"?>
<svg width="1024px" height="1024px" viewBox="0 0 1024 1024" version="1.1" xmlns="http://www.w3.org/2000/svg" xmlns:xlink="http://www.w3.org/1999/xlink">
    <!-- Generator: Sketch 51.2 (57519) - http://www.bohemiancoding.com/sketch -->
    <title>codium_blue_light</title>
    <desc>Created with Sketch.</desc>
    <defs>
        <circle id="path-1" cx="512" cy="512" r="465"></circle>
        <filter x="-2.0%" y="-1.5%" width="104.1%" height="104.1%" filterUnits="objectBoundingBox" id="filter-2">
            <feMorphology radius="0.5" operator="dilate" in="SourceAlpha" result="shadowSpreadOuter1"></feMorphology>
            <feOffset dx="0" dy="5" in="shadowSpreadOuter1" result="shadowOffsetOuter1"></feOffset>
            <feGaussianBlur stdDeviation="5" in="shadowOffsetOuter1" result="shadowBlurOuter1"></feGaussianBlur>
            <feColorMatrix values="0 0 0 0 0   0 0 0 0 0   0 0 0 0 0  0 0 0 0.35 0" type="matrix" in="shadowBlurOuter1"></feColorMatrix>
        </filter>
        <linearGradient x1="0%" y1="0%" x2="96.6679942%" y2="95.7202697%" id="linearGradient-3">
            <stop stop-color="#56CCF2" offset="0%"></stop>
            <stop stop-color="#2F80ED" offset="100%"></stop>
        </linearGradient>
    </defs>
    <g id="codium_blue_light" stroke="none" stroke-width="1" fill="none" fill-rule="evenodd">
        <g id="Oval">
            <use fill="black" fill-opacity="1" filter="url(#filter-2)" xlink:href="#path-1"></use>
            <use fill="#FFFFFF" fill-rule="evenodd" xlink:href="#path-1"></use>
        </g>
        <path d="M599.251825,204.98959 C603.425919,198.406839 610.898231,194.027462 618.740053,194.000091 C629.729551,193.97272 640.185314,200.144904 646.549096,208.931029 C652.543368,217.333958 654.390918,227.953947 654.404603,238.094942 C654.308804,252.355288 651.024272,266.369294 647.110204,280.01379 C637.325033,312.215896 624.036361,343.227359 614.114336,375.388408 C603.179579,411.887778 597.938012,452.561241 612.62261,488.800585 C620.300206,467.369009 627.895687,445.896377 635.545911,424.43743 C637.721914,418.771611 640.582195,412.325715 646.65858,409.999171 C655.116252,406.98835 663.73815,415.815531 663.49181,423.985807 C661.178952,435.892238 656.690091,447.237561 653.159218,458.815539 C624.542727,544.842924 592.491162,629.679666 561.63024,714.926975 C602.673213,677.401189 643.839356,640.012258 684.937072,602.5549 C696.761389,591.78437 709.584752,580.055851 713.211424,563.783729 C716.82441,547.812689 710.104803,531.964819 702.48195,518.251895 C693.68214,501.883973 682.446301,486.3235 678.313264,467.902746 C676.23306,458.363915 676.862596,447.388102 683.294805,439.573651 C687.934208,433.688863 696.378194,430.650671 703.508367,433.524637 C710.542741,436.207005 714.785263,442.967668 718.110852,449.345136 C729.278263,471.748386 736.244209,496.23184 738.639181,521.153232 C746.262034,505.77067 753.980686,490.442851 761.617224,475.073975 C766.229256,466.014139 770.30755,456.297397 777.793548,449.139853 C782.30978,444.678362 788.892531,441.872824 795.269999,443.323493 C803.262362,445.088929 808.873438,452.355958 811.02207,459.910383 C813.458099,467.930117 810.885215,476.278304 808.298645,483.901157 C800.593679,505.209563 788.49565,524.492507 776.835559,543.789136 C760.577122,569.340063 743.305955,594.275141 724.460948,617.992204 C735.231478,610.793603 746.576802,603.225492 759.769675,601.720082 C772.250899,600.050444 786.045936,607.358529 790.178973,619.538671 C792.943455,627.832116 788.468279,637.220406 780.954911,641.271329 C769.938041,647.416143 756.895709,647.334029 744.647139,647.881451 C700.210149,649.099466 656.895374,670.982665 629.318985,705.812397 C607.558956,733.594069 596.446287,768.109033 574.357805,795.658051 C560.425912,812.450225 540.748171,833.528861 519.095542,828.872888 C490.260082,822.672388 490.260082,777.606807 483.075167,755.271985 C479.366382,744.008775 472.414121,733.717239 462.765807,726.69655 C454.335506,720.469624 444.235568,716.897694 434.026146,714.94066 C410.596479,710.438113 386.427793,712.8194 363.052868,707.9884 C351.351721,705.607113 339.828485,700.912969 330.891819,692.824807 C322.379405,685.352495 316.494618,675.348356 312.416323,664.878908 C303.602827,642.078777 301.810019,617.335297 293.981883,594.24777 C282.650245,561.005562 260.23331,531.62268 231.02834,512.107081 C224.869841,507.946673 218.177606,503.89575 214.19511,497.408798 C210.951634,492.345143 211.239031,485.146542 215.481552,480.726109 C222.639096,472.939029 235.571944,472.295808 243.838017,478.741704 C260.780732,490.757619 263.230446,514.105172 279.023574,527.174875 C279.050945,505.606444 278.941461,484.051698 278.900404,462.496952 C278.955146,456.270026 278.257183,449.564105 281.377489,443.898286 C284.210398,438.533549 292.05222,437.082881 296.609509,441.106433 C302.768008,446.265887 304.642929,454.682502 305.518804,462.305355 C308.584368,492.01669 311.540447,521.741711 314.619697,551.466731 C330.098057,537.56221 337.214545,514.994733 332.205632,494.7538 C330.686536,488.294219 328.223136,481.643041 329.619063,474.93712 C330.754964,469.312358 336.721865,465.357233 342.346627,466.356278 C348.669352,467.218468 353.185585,472.637947 355.553185,478.207967 C359.330398,487.43203 359.344084,497.70988 358.577693,507.508736 C356.333262,529.829872 346.89023,550.440315 340.375907,571.680293 C334.025811,590.4295 329.660119,611.258912 336.023902,630.623969 C341.68972,648.729956 356.059551,663.045044 372.920152,671.160577 C393.735878,681.383685 417.17923,684.558733 440.116217,685.461979 C426.170638,661.060639 411.007046,635.236 411.267071,606.208943 C411.540782,576.976602 430.125763,552.356292 435.148361,524.150368 C443.701831,477.345777 422.585023,426.476577 383.26643,399.625522 C365.803665,387.623293 344.837398,382.285927 326.895638,371.159572 C310.664572,361.223861 296.089458,343.542127 298.634971,323.410679 C310.965654,318.634421 324.73332,321.686299 335.859675,328.091138 C357.606018,339.696486 371.442112,361.702855 393.29794,373.130292 C400.975535,377.318071 409.775346,379.38459 418.520414,378.850853 C423.255615,367.50553 418.520414,354.791651 410.883876,345.950784 C396.514045,328.63856 372.263245,324.437095 357.236508,307.891262 C349.709454,299.255678 345.50799,286.911309 348.669352,275.620728 C351.242236,266.697747 360.479984,260.621362 369.676676,261.291954 C383.293801,262.140458 395.02232,270.666558 404.328496,280.054847 C435.134675,310.847341 452.857466,352.725133 459.809727,395.287202 C468.021059,445.48581 461.643591,496.697149 451.529968,546.129366 C449.641361,556.201933 446.110489,566.534525 448.724429,576.812375 C449.846645,581.574948 453.281718,586.488061 458.550656,586.912313 C465.803999,587.377622 471.798271,582.437138 477.080895,578.112503 C493.599357,564.618548 506.723802,546.457819 512.143281,525.655779 C516.372117,510.492186 516.495287,494.616945 516.194205,479.001729 C516.276318,471.187278 515.701525,462.56538 520.368299,455.804717 C523.707573,450.576836 529.9345,446.47117 536.339339,447.990266 C541.361937,448.948255 544.92018,453.300261 546.452962,457.967034 C548.916362,465.644629 548.546852,473.938074 547.055127,481.779896 C542.333611,503.40307 538.063718,525.31364 529.510248,545.841969 C523.474919,560.58131 515.31833,574.595316 504.274088,586.145922 C492.093946,599.051399 477.053524,609.397677 467.240982,624.438099 C460.548747,634.715949 456.224112,647.48457 459.12545,659.760511 C461.24671,669.559367 468.705337,677.55173 477.696745,681.630025 C490.793819,687.610611 506.696431,687.309529 519.465052,680.576237 C529.592361,675.102016 536.790962,665.631613 542.525209,655.901185 C552.625147,638.397363 558.742589,618.963878 563.819929,599.503022 C571.63438,568.080993 576.232725,535.865201 578.039218,503.539925 C580.105737,469.011275 573.837754,433.305668 556.42973,403.14271 C547.178297,386.993757 534.094908,373.239777 518.808146,362.715586 C505.040479,352.478793 489.904258,343.610555 478.736847,330.349254 C468.29477,318.059627 461.055112,301.472737 464.859696,285.159558 C472.003555,280.670697 481.022334,279.89062 488.932584,282.696159 C503.863522,287.773499 515.550984,299.762043 523.091724,313.324426 C533.328517,329.309152 541.868302,348.33207 559.905861,357.008711 C545.234948,328.14588 530.098727,299.529389 515.249902,270.762357 C510.418902,261.045614 505.656329,250.425625 506.9154,239.312956 C507.832332,230.841599 515.701525,223.889338 524.200253,223.930395 C531.740993,223.957766 538.816424,228.200287 543.305285,234.112446 C548.437367,240.763625 550.887081,248.961271 553.19994,256.926263 C565.037943,298.119777 576.862261,339.299605 588.741321,380.479434 C603.672259,352.040855 609.981299,319.086044 605.738777,287.171335 C603.877542,270.255991 598.909686,253.915441 594.968247,237.410664 C592.285879,226.612763 593.093326,214.501049 599.251825,204.98959 Z" id="Shape" fill="url(#linearGradient-3)" fill-rule="nonzero"></path>
    </g>
</svg>

<?xml version="1.0" encoding="UTF-8" standalone="no"?>
<svg
   width="1024px"
   height="1024px"
   viewBox="0 0 1024 1024"
   version="1.1"
   id="svg30"
   xmlns:xlink="http://www.w3.org/1999/xlink"
   xmlns="http://www.w3.org/2000/svg"
   xmlns:svg="http://www.w3.org/2000/svg"
   xmlns:rdf="http://www.w3.org/1999/02/22-rdf-syntax-ns#"
   xmlns:cc="http://creativecommons.org/ns#"
   xmlns:dc="http://purl.org/dc/elements/1.1/">
  <!-- Generator: Sketch 51.2 (57519) - http://www.bohemiancoding.com/sketch -->
  <title
     id="title2">codium_blue_light</title>
  <desc
     id="desc4">Created with Sketch.</desc>
  <defs
     id="defs21">
    <circle
       id="path-1"
       cx="512"
       cy="512"
       r="465" />
    <filter
       x="-0.012903226"
       y="-0.012903226"
       width="1.0258065"
       height="1.0311828"
       filterUnits="objectBoundingBox"
       id="filter-2">
      <feMorphology
         radius="0.5"
         operator="dilate"
         in="SourceAlpha"
         result="shadowSpreadOuter1"
         id="feMorphology7" />
      <feOffset
         dx="0"
         dy="5"
         in="shadowSpreadOuter1"
         result="shadowOffsetOuter1"
         id="feOffset9" />
      <feGaussianBlur
         stdDeviation="5"
         in="shadowOffsetOuter1"
         result="shadowBlurOuter1"
         id="feGaussianBlur11" />
      <feColorMatrix
         values="0 0 0 0 0   0 0 0 0 0   0 0 0 0 0  0 0 0 0.35 0"
         type="matrix"
         in="shadowBlurOuter1"
         id="feColorMatrix13" />
    </filter>
    <linearGradient
       x1="218.1865"
       y1="188.49929"
       x2="815.12002"
       y2="779.58052"
       id="linearGradient-3"
       gradientTransform="scale(0.97164582,1.0291816)"
       gradientUnits="userSpaceOnUse">
      <stop
         stop-color="#56CCF2"
         offset="0%"
         id="stop16" />
      <stop
         stop-color="#2F80ED"
         offset="100%"
         id="stop18" />
    </linearGradient>
  </defs>
  <g
     id="codium_blue_light"
     stroke="none"
     stroke-width="1"
     fill="none"
     fill-rule="evenodd"
     transform="matrix(1.067779,0,0,1.067779,-34.702895,-37.372281)">
    <g
       id="Oval">
      <use
         fill="#000000"
         fill-opacity="1"
         filter="url(#filter-2)"
         xlink:href="#path-1"
         id="use23"
         x="0"
         y="0"
         width="100%"
         height="100%" />
      <use
         fill="#ffffff"
         fill-rule="evenodd"
         xlink:href="#path-1"
         id="use25"
         x="0"
         y="0"
         width="100%"
         height="100%" />
    </g>
    <path
       d="m 599.25183,204.98959 c 4.17409,-6.58275 11.6464,-10.96213 19.48822,-10.9895 10.9895,-0.0274 21.44526,6.14481 27.80905,14.93094 5.99427,8.40293 7.84182,19.02292 7.8555,29.16391 -0.0958,14.26035 -3.38033,28.27435 -7.2944,41.91885 -9.78517,32.20211 -23.07384,63.21357 -32.99586,95.37462 -10.93476,36.49937 -16.17633,77.17283 -1.49173,113.41217 7.6776,-21.43157 15.27308,-42.9042 22.9233,-64.36315 2.176,-5.66582 5.03628,-12.11172 11.11267,-14.43826 8.45767,-3.01082 17.07957,5.81636 16.83323,13.98664 -2.31286,11.90643 -6.80172,23.25175 -10.33259,34.82973 -28.61649,86.02738 -60.66806,170.86413 -91.52898,256.11143 41.04297,-37.52578 82.20912,-74.91471 123.30683,-112.37207 11.82432,-10.77053 24.64768,-22.49905 28.27435,-38.77117 3.61299,-15.97104 -3.10662,-31.81891 -10.72947,-45.53184 -8.79981,-16.36792 -20.03565,-31.92839 -24.16869,-50.34914 -2.0802,-9.53883 -1.45066,-20.51465 4.98154,-28.3291 4.63941,-5.88479 13.08339,-8.92298 20.21357,-6.04901 7.03437,2.68236 11.27689,9.44303 14.60248,15.8205 11.16741,22.40325 18.13336,46.8867 20.52833,71.80809 7.62285,-15.38256 15.34151,-30.71038 22.97804,-46.07925 4.61204,-9.05984 8.69033,-18.77658 16.17633,-25.93413 4.51623,-4.46149 11.09898,-7.26703 17.47645,-5.81636 7.99236,1.76544 13.60344,9.03247 15.75207,16.58689 2.43603,8.01974 -0.13685,16.36792 -2.72343,23.99078 -7.70496,21.3084 -19.80299,40.59135 -31.46308,59.88798 -16.25844,25.55092 -33.5296,50.486 -52.37461,74.20306 10.77053,-7.1986 22.11585,-14.76671 35.30872,-16.27212 12.48123,-1.66964 26.27627,5.63845 30.4093,17.81859 2.76448,8.29345 -1.71069,17.68174 -9.22406,21.73266 -11.01687,6.14481 -24.0592,6.0627 -36.30777,6.61012 -44.43699,1.21802 -87.75177,23.10121 -115.32816,57.93095 -21.76002,27.78167 -32.87269,62.29663 -54.96118,89.84565 -13.93189,16.79218 -33.60963,37.87081 -55.26226,33.21484 -28.83546,-6.2005 -28.83546,-51.26608 -36.02037,-73.60091 -3.70879,-11.2632 -10.66105,-21.55474 -20.30936,-28.57543 -8.4303,-6.22693 -18.53024,-9.79886 -28.73966,-11.75589 -23.42967,-4.50255 -47.59836,-2.12126 -70.97328,-6.95226 -11.70115,-2.38129 -23.22439,-7.07543 -32.16105,-15.16359 -8.51241,-7.47232 -14.3972,-17.47645 -18.4755,-27.9459 -8.81349,-22.80013 -10.6063,-47.54361 -18.43444,-70.63114 -11.33164,-33.24221 -33.74857,-62.62509 -62.95354,-82.14069 -6.1585,-4.16041 -12.85073,-8.21133 -16.83323,-14.69828 -3.24348,-5.06366 -2.95608,-12.26226 1.28644,-16.68269 7.15755,-7.78708 20.09039,-8.4303 28.35647,-1.98441 16.94271,12.01592 19.39243,35.36347 35.18555,48.43318 0.0274,-21.56844 -0.0821,-43.12318 -0.12317,-64.67793 0.0548,-6.22692 -0.64322,-12.93285 2.47709,-18.59866 2.83291,-5.36474 10.67473,-6.81541 15.23202,-2.79186 6.1585,5.15946 8.03342,13.57607 8.90929,21.19893 3.06557,29.71133 6.02165,59.43635 9.1009,89.16137 15.47836,-13.90452 22.59484,-36.472 17.58593,-56.71293 -1.51909,-6.45958 -3.98249,-13.11076 -2.58657,-19.81668 1.1359,-5.62476 7.1028,-9.57989 12.72757,-8.58084 6.32272,0.86219 10.83895,6.28167 13.20655,11.85169 3.77722,9.22406 3.7909,19.50191 3.02451,29.30077 -2.24443,22.32113 -11.68746,42.93158 -18.20178,64.17155 -6.3501,18.74921 -10.71579,39.57862 -4.35201,58.94368 5.66582,18.10599 20.03565,32.42107 36.89625,40.53661 20.81573,10.22311 44.25908,13.39815 67.19607,14.3014 -13.94558,-24.40134 -29.10917,-50.22598 -28.84915,-79.25304 0.27371,-29.23234 18.85869,-53.85265 23.88129,-82.05857 8.55347,-46.80459 -12.56334,-97.67379 -51.88193,-124.52485 -17.46276,-12.00223 -38.42903,-17.33959 -56.37079,-28.46595 -16.23107,-9.93571 -30.80618,-27.61744 -28.26067,-47.74889 12.33068,-4.77626 26.09835,-1.72438 37.2247,4.68046 21.74635,11.60535 35.58244,33.61171 57.43827,45.03915 7.67759,4.18778 16.47741,6.2543 25.22247,5.72056 4.7352,-11.34532 0,-24.0592 -7.63653,-32.90007 -14.36984,-17.31222 -38.62064,-21.51369 -53.64737,-38.05952 -7.52706,-8.63558 -11.72852,-20.97995 -8.56716,-32.27053 2.57289,-8.92298 11.81063,-14.99937 21.00733,-14.32878 13.61712,0.84851 25.34564,9.37461 34.65182,18.7629 30.80618,30.79249 48.52897,72.67028 55.48123,115.23235 8.21133,50.19861 1.83386,101.40995 -8.27976,150.84217 -1.88861,10.07256 -5.41948,20.40516 -2.80554,30.683 1.12222,4.76258 4.55729,9.67569 9.82623,10.09994 7.25334,0.46531 13.24761,-4.47517 18.53023,-8.79981 16.51847,-13.49395 29.64291,-31.65468 35.06239,-52.45672 4.22884,-15.16359 4.35201,-31.03884 4.05092,-46.65405 0.0821,-7.81445 -0.49268,-16.43635 4.1741,-23.19701 3.33927,-5.22788 9.5662,-9.33355 15.97104,-7.81445 5.0226,0.95799 8.58084,5.30999 10.11362,9.97676 2.4634,7.6776 2.09389,15.97104 0.60217,23.81287 -4.72152,21.62317 -8.99141,43.53374 -17.54488,64.06207 -6.03533,14.73934 -14.19192,28.75335 -25.23616,40.30395 -12.18014,12.90548 -27.22057,23.25176 -37.03311,38.29218 -6.69223,10.27785 -11.01687,23.04647 -8.11553,35.32241 2.12126,9.79886 9.57989,17.79122 18.5713,21.86952 13.09707,5.98058 28.99968,5.6795 41.7683,-1.05379 10.12731,-5.47422 17.32591,-14.94463 23.06016,-24.67505 10.09994,-17.50383 16.21738,-36.93731 21.29472,-56.39817 7.81445,-31.42203 12.41279,-63.63782 14.21929,-95.9631 2.06652,-34.52865 -4.20147,-70.23425 -21.60949,-100.39721 -9.25143,-16.14895 -22.33482,-29.90293 -37.62158,-40.42712 -13.76767,-10.2368 -28.90389,-19.10504 -40.0713,-32.36634 -10.44208,-12.28962 -17.68174,-28.87651 -13.87715,-45.18969 7.14385,-4.48886 16.16263,-5.26894 24.07288,-2.4634 14.93094,5.07734 26.6184,17.06588 34.15914,30.62827 10.2368,15.98472 18.77658,35.00764 36.81414,43.68428 -14.67091,-28.86283 -29.80713,-57.47932 -44.65596,-86.24635 -4.831,-9.71675 -9.59357,-20.33674 -8.3345,-31.4494 0.91693,-8.47136 8.78612,-15.42362 17.28485,-15.38257 7.54074,0.0274 14.61617,4.2699 19.10504,10.18206 5.13208,6.65117 7.58179,14.84882 9.89465,22.81381 11.838,41.19352 23.66232,82.37334 35.54138,123.55317 14.93094,-28.43857 21.23998,-61.39339 16.99746,-93.3081 -1.86124,-16.91534 -6.82909,-33.25589 -10.77053,-49.76067 -2.68237,-10.7979 -1.87492,-22.90961 4.28358,-32.42107 z"
       id="Shape"
       fill="url(#linearGradient-3)"
       fill-rule="nonzero"
       style="fill:url(#linearGradient-3)" />
  </g>
  <metadata
     id="metadata849">
    <rdf:RDF>
      <cc:Work
         rdf:about="">
        <dc:title>codium_blue_light</dc:title>
      </cc:Work>
    </rdf:RDF>
  </metadata>
</svg>
